images/3233765.svg

<?xml version="1.0" encoding="UTF-8"?>
<svg xmlns="http://www.w3.org/2000/svg" xmlns:xlink="http://www.w3.org/1999/xlink" width="300pt" height="300pt" viewBox="0 0 300 300" version="1.1">
<defs>
<g>
<symbol overflow="visible" id="glyph0-0">
<path style="stroke:none;" d="M 0.453125 1.59375 L 0.453125 -6.34375 L 4.953125 -6.34375 L 4.953125 1.59375 Z M 0.953125 1.09375 L 4.453125 1.09375 L 4.453125 -5.84375 L 0.953125 -5.84375 Z M 0.953125 1.09375 "/>
</symbol>
<symbol overflow="visible" id="glyph0-1">
<path style="stroke:none;" d="M 0.890625 -6.5625 L 2.078125 -6.5625 L 4.984375 -1.078125 L 4.984375 -6.5625 L 5.84375 -6.5625 L 5.84375 0 L 4.65625 0 L 1.75 -5.484375 L 1.75 0 L 0.890625 0 Z M 0.890625 -6.5625 "/>
</symbol>
<symbol overflow="visible" id="glyph0-2">
<path style="stroke:none;" d="M 0.890625 -6.5625 L 1.765625 -6.5625 L 1.765625 -3.875 L 5 -3.875 L 5 -6.5625 L 5.890625 -6.5625 L 5.890625 0 L 5 0 L 5 -3.125 L 1.765625 -3.125 L 1.765625 0 L 0.890625 0 Z M 0.890625 -6.5625 "/>
</symbol>
<symbol overflow="visible" id="glyph0-3">
<path style="stroke:none;" d="M 3.546875 -5.953125 C 2.898438 -5.953125 2.382812 -5.710938 2 -5.234375 C 1.625 -4.753906 1.4375 -4.101562 1.4375 -3.28125 C 1.4375 -2.445312 1.625 -1.789062 2 -1.3125 C 2.382812 -0.832031 2.898438 -0.59375 3.546875 -0.59375 C 4.191406 -0.59375 4.703125 -0.832031 5.078125 -1.3125 C 5.453125 -1.789062 5.640625 -2.445312 5.640625 -3.28125 C 5.640625 -4.101562 5.453125 -4.753906 5.078125 -5.234375 C 4.703125 -5.710938 4.191406 -5.953125 3.546875 -5.953125 Z M 3.546875 -6.6875 C 4.460938 -6.6875 5.195312 -6.375 5.75 -5.75 C 6.300781 -5.132812 6.578125 -4.3125 6.578125 -3.28125 C 6.578125 -2.238281 6.300781 -1.410156 5.75 -0.796875 C 5.195312 -0.179688 4.460938 0.125 3.546875 0.125 C 2.617188 0.125 1.878906 -0.179688 1.328125 -0.796875 C 0.773438 -1.410156 0.5 -2.238281 0.5 -3.28125 C 0.5 -4.3125 0.773438 -5.132812 1.328125 -5.75 C 1.878906 -6.375 2.617188 -6.6875 3.546875 -6.6875 Z M 3.546875 -6.6875 "/>
</symbol>
</g>
</defs>
<g id="surface37905">
<rect x="0" y="0" width="300" height="300" style="fill:rgb(100%,100%,100%);fill-opacity:1;stroke:none;"/>
<path style="fill:none;stroke-width:1.2;stroke-linecap:butt;stroke-linejoin:miter;stroke:rgb(0%,0%,0%);stroke-opacity:1;stroke-miterlimit:10;" d="M 35.25 173.738281 L 57.429688 163.828125 "/>
<path style="fill:none;stroke-width:1.2;stroke-linecap:butt;stroke-linejoin:miter;stroke:rgb(0%,0%,0%);stroke-opacity:1;stroke-miterlimit:10;" d="M 57.429688 163.828125 L 59.9375 139.664062 "/>
<path style="fill:none;stroke-width:1.2;stroke-linecap:butt;stroke-linejoin:miter;stroke:rgb(0%,0%,0%);stroke-opacity:1;stroke-miterlimit:10;" d="M 63.367188 162 L 65.371094 142.671875 "/>
<path style="fill:none;stroke-width:1.2;stroke-linecap:butt;stroke-linejoin:miter;stroke:rgb(0%,0%,100%);stroke-opacity:1;stroke-miterlimit:10;" d="M 77.101562 178.082031 L 67.265625 170.953125 "/>
<path style="fill:none;stroke-width:1.2;stroke-linecap:butt;stroke-linejoin:miter;stroke:rgb(0%,0%,0%);stroke-opacity:1;stroke-miterlimit:10;" d="M 67.265625 170.953125 L 57.429688 163.828125 "/>
<path style="fill:none;stroke-width:1.2;stroke-linecap:butt;stroke-linejoin:miter;stroke:rgb(0%,0%,0%);stroke-opacity:1;stroke-miterlimit:10;" d="M 59.9375 139.664062 L 71.027344 134.707031 "/>
<path style="fill:none;stroke-width:1.2;stroke-linecap:butt;stroke-linejoin:miter;stroke:rgb(0%,0%,100%);stroke-opacity:1;stroke-miterlimit:10;" d="M 71.027344 134.707031 L 82.117188 129.753906 "/>
<path style="fill:none;stroke-width:1.2;stroke-linecap:butt;stroke-linejoin:miter;stroke:rgb(0%,0%,100%);stroke-opacity:1;stroke-miterlimit:10;" d="M 82.117188 129.753906 L 91.953125 136.878906 "/>
<path style="fill:none;stroke-width:1.2;stroke-linecap:butt;stroke-linejoin:miter;stroke:rgb(0%,0%,0%);stroke-opacity:1;stroke-miterlimit:10;" d="M 91.953125 136.878906 L 101.789062 144.007812 "/>
<path style="fill:none;stroke-width:1.2;stroke-linecap:butt;stroke-linejoin:miter;stroke:rgb(0%,0%,100%);stroke-opacity:1;stroke-miterlimit:10;" d="M 80.730469 135.808594 L 88.601562 141.507812 "/>
<path style="fill:none;stroke-width:1.2;stroke-linecap:butt;stroke-linejoin:miter;stroke:rgb(0%,0%,0%);stroke-opacity:1;stroke-miterlimit:10;" d="M 88.601562 141.507812 L 96.46875 147.210938 "/>
<path style=" stroke:none;fill-rule:nonzero;fill:rgb(100%,100%,100%);fill-opacity:1;" d="M 79.117188 124.253906 L 86.117188 124.253906 L 86.117188 135.253906 L 79.117188 135.253906 Z M 79.117188 124.253906 "/>
<g style="fill:rgb(0%,0%,100%);fill-opacity:1;">
  <use xlink:href="#glyph0-1" x="79.117188" y="132.916992"/>
</g>
<path style="fill:none;stroke-width:1.2;stroke-linecap:butt;stroke-linejoin:miter;stroke:rgb(0%,0%,0%);stroke-opacity:1;stroke-miterlimit:10;" d="M 101.789062 144.007812 L 99.285156 168.171875 "/>
<path style="fill:none;stroke-width:1.2;stroke-linecap:butt;stroke-linejoin:miter;stroke:rgb(0%,0%,0%);stroke-opacity:1;stroke-miterlimit:10;" d="M 101.789062 144.007812 L 123.972656 134.097656 "/>
<path style="fill:none;stroke-width:1.2;stroke-linecap:butt;stroke-linejoin:miter;stroke:rgb(0%,0%,0%);stroke-opacity:1;stroke-miterlimit:10;" d="M 99.285156 168.171875 L 88.191406 173.125 "/>
<path style="fill:none;stroke-width:1.2;stroke-linecap:butt;stroke-linejoin:miter;stroke:rgb(0%,0%,100%);stroke-opacity:1;stroke-miterlimit:10;" d="M 88.191406 173.125 L 77.101562 178.082031 "/>
<path style="fill:none;stroke-width:1.2;stroke-linecap:butt;stroke-linejoin:miter;stroke:rgb(0%,0%,0%);stroke-opacity:1;stroke-miterlimit:10;" d="M 94.734375 163.941406 L 85.859375 167.90625 "/>
<path style="fill:none;stroke-width:1.2;stroke-linecap:butt;stroke-linejoin:miter;stroke:rgb(0%,0%,100%);stroke-opacity:1;stroke-miterlimit:10;" d="M 85.859375 167.90625 L 76.988281 171.871094 "/>
<path style=" stroke:none;fill-rule:nonzero;fill:rgb(100%,100%,100%);fill-opacity:1;" d="M 74.101562 172.582031 L 81.101562 172.582031 L 81.101562 183.582031 L 74.101562 183.582031 Z M 74.101562 172.582031 "/>
<g style="fill:rgb(0%,0%,100%);fill-opacity:1;">
  <use xlink:href="#glyph0-1" x="74.101562" y="181.245117"/>
</g>
<path style="fill:none;stroke-width:1.2;stroke-linecap:butt;stroke-linejoin:miter;stroke:rgb(0%,0%,0%);stroke-opacity:1;stroke-miterlimit:10;" d="M 123.972656 134.097656 L 133.808594 141.222656 "/>
<path style="fill:none;stroke-width:1.2;stroke-linecap:butt;stroke-linejoin:miter;stroke:rgb(0%,0%,100%);stroke-opacity:1;stroke-miterlimit:10;" d="M 133.808594 141.222656 L 143.644531 148.351562 "/>
<path style="fill:none;stroke-width:1.2;stroke-linecap:butt;stroke-linejoin:miter;stroke:rgb(0%,0%,100%);stroke-opacity:1;stroke-miterlimit:10;" d="M 143.644531 148.351562 L 154.734375 143.394531 "/>
<path style="fill:none;stroke-width:1.2;stroke-linecap:butt;stroke-linejoin:miter;stroke:rgb(0%,0%,0%);stroke-opacity:1;stroke-miterlimit:10;" d="M 154.734375 143.394531 L 165.824219 138.4375 "/>
<path style=" stroke:none;fill-rule:nonzero;fill:rgb(100%,100%,100%);fill-opacity:1;" d="M 136.644531 142.851562 L 150.644531 142.851562 L 150.644531 153.851562 L 136.644531 153.851562 Z M 136.644531 142.851562 "/>
<g style="fill:rgb(0%,0%,100%);fill-opacity:1;">
  <use xlink:href="#glyph0-1" x="136.644531" y="151.514648"/>
  <use xlink:href="#glyph0-2" x="143.62207" y="151.514648"/>
</g>
<path style="fill:none;stroke-width:1.2;stroke-linecap:butt;stroke-linejoin:miter;stroke:rgb(0%,0%,0%);stroke-opacity:1;stroke-miterlimit:10;" d="M 165.824219 138.4375 L 175.660156 145.566406 "/>
<path style="fill:none;stroke-width:1.2;stroke-linecap:butt;stroke-linejoin:miter;stroke:rgb(0%,0%,100%);stroke-opacity:1;stroke-miterlimit:10;" d="M 175.660156 145.566406 L 185.496094 152.691406 "/>
<path style="fill:none;stroke-width:1.2;stroke-linecap:butt;stroke-linejoin:miter;stroke:rgb(0%,0%,0%);stroke-opacity:1;stroke-miterlimit:10;" d="M 171.144531 135.234375 L 179.015625 140.9375 "/>
<path style="fill:none;stroke-width:1.2;stroke-linecap:butt;stroke-linejoin:miter;stroke:rgb(0%,0%,100%);stroke-opacity:1;stroke-miterlimit:10;" d="M 179.015625 140.9375 L 186.882812 146.636719 "/>
<path style="fill:none;stroke-width:1.2;stroke-linecap:butt;stroke-linejoin:miter;stroke:rgb(0%,0%,0%);stroke-opacity:1;stroke-miterlimit:10;" d="M 168.332031 114.277344 L 165.824219 138.4375 "/>
<path style="fill:none;stroke-width:1.2;stroke-linecap:butt;stroke-linejoin:miter;stroke:rgb(0%,0%,100%);stroke-opacity:1;stroke-miterlimit:10;" d="M 185.496094 152.691406 L 196.585938 147.738281 "/>
<path style="fill:none;stroke-width:1.2;stroke-linecap:butt;stroke-linejoin:miter;stroke:rgb(0%,0%,0%);stroke-opacity:1;stroke-miterlimit:10;" d="M 196.585938 147.738281 L 207.675781 142.78125 "/>
<path style=" stroke:none;fill-rule:nonzero;fill:rgb(100%,100%,100%);fill-opacity:1;" d="M 182.496094 147.191406 L 189.496094 147.191406 L 189.496094 158.191406 L 182.496094 158.191406 Z M 182.496094 147.191406 "/>
<g style="fill:rgb(0%,0%,100%);fill-opacity:1;">
  <use xlink:href="#glyph0-1" x="182.496094" y="155.854492"/>
</g>
<path style="fill:none;stroke-width:1.2;stroke-linecap:butt;stroke-linejoin:miter;stroke:rgb(0%,0%,0%);stroke-opacity:1;stroke-miterlimit:10;" d="M 207.675781 142.78125 L 208.929688 130.699219 "/>
<path style="fill:none;stroke-width:1.2;stroke-linecap:butt;stroke-linejoin:miter;stroke:rgb(0%,0%,100%);stroke-opacity:1;stroke-miterlimit:10;" d="M 208.929688 130.699219 L 210.183594 118.617188 "/>
<path style="fill:none;stroke-width:1.2;stroke-linecap:butt;stroke-linejoin:miter;stroke:rgb(0%,0%,0%);stroke-opacity:1;stroke-miterlimit:10;" d="M 202.242188 139.777344 L 203.246094 130.109375 "/>
<path style="fill:none;stroke-width:1.2;stroke-linecap:butt;stroke-linejoin:miter;stroke:rgb(0%,0%,100%);stroke-opacity:1;stroke-miterlimit:10;" d="M 203.246094 130.109375 L 204.25 120.445312 "/>
<path style="fill:none;stroke-width:1.2;stroke-linecap:butt;stroke-linejoin:miter;stroke:rgb(0%,0%,0%);stroke-opacity:1;stroke-miterlimit:10;" d="M 207.675781 142.78125 L 227.351562 157.035156 "/>
<path style="fill:none;stroke-width:1.2;stroke-linecap:butt;stroke-linejoin:miter;stroke:rgb(0%,0%,100%);stroke-opacity:1;stroke-miterlimit:10;" d="M 210.183594 118.617188 L 200.347656 111.492188 "/>
<path style="fill:none;stroke-width:1.2;stroke-linecap:butt;stroke-linejoin:miter;stroke:rgb(0%,0%,0%);stroke-opacity:1;stroke-miterlimit:10;" d="M 200.347656 111.492188 L 190.511719 104.363281 "/>
<path style=" stroke:none;fill-rule:nonzero;fill:rgb(100%,100%,100%);fill-opacity:1;" d="M 207.183594 113.117188 L 214.183594 113.117188 L 214.183594 124.117188 L 207.183594 124.117188 Z M 207.183594 113.117188 "/>
<g style="fill:rgb(0%,0%,100%);fill-opacity:1;">
  <use xlink:href="#glyph0-1" x="207.183594" y="121.780273"/>
</g>
<path style="fill:none;stroke-width:1.2;stroke-linecap:butt;stroke-linejoin:miter;stroke:rgb(0%,0%,0%);stroke-opacity:1;stroke-miterlimit:10;" d="M 190.511719 104.363281 L 168.332031 114.277344 "/>
<path style="fill:none;stroke-width:1.2;stroke-linecap:butt;stroke-linejoin:miter;stroke:rgb(0%,0%,0%);stroke-opacity:1;stroke-miterlimit:10;" d="M 190.625 110.574219 L 172.882812 118.503906 "/>
<path style="fill:none;stroke-width:1.2;stroke-linecap:butt;stroke-linejoin:miter;stroke:rgb(0%,0%,0%);stroke-opacity:1;stroke-miterlimit:10;" d="M 227.351562 157.035156 L 250.445312 149.5 "/>
<path style="fill:none;stroke-width:1.2;stroke-linecap:butt;stroke-linejoin:miter;stroke:rgb(0%,0%,0%);stroke-opacity:1;stroke-miterlimit:10;" d="M 231.433594 161.714844 L 249.910156 155.6875 "/>
<path style="fill:none;stroke-width:1.2;stroke-linecap:butt;stroke-linejoin:miter;stroke:rgb(0%,0%,0%);stroke-opacity:1;stroke-miterlimit:10;" d="M 227.382812 181.328125 L 227.351562 157.035156 "/>
<path style="fill:none;stroke-width:1.2;stroke-linecap:butt;stroke-linejoin:miter;stroke:rgb(0%,0%,0%);stroke-opacity:1;stroke-miterlimit:10;" d="M 250.445312 149.5 L 257.597656 159.316406 "/>
<path style="fill:none;stroke-width:1.2;stroke-linecap:butt;stroke-linejoin:miter;stroke:rgb(100%,0%,0%);stroke-opacity:1;stroke-miterlimit:10;" d="M 257.597656 159.316406 L 264.75 169.132812 "/>
<path style="fill:none;stroke-width:1.2;stroke-linecap:butt;stroke-linejoin:miter;stroke:rgb(0%,0%,0%);stroke-opacity:1;stroke-miterlimit:10;" d="M 250.445312 149.5 L 257.921875 126.382812 "/>
<path style="fill:none;stroke-width:1.2;stroke-linecap:butt;stroke-linejoin:miter;stroke:rgb(100%,0%,0%);stroke-opacity:1;stroke-miterlimit:10;" d="M 264.75 169.132812 L 257.625 178.96875 "/>
<path style="fill:none;stroke-width:1.2;stroke-linecap:butt;stroke-linejoin:miter;stroke:rgb(0%,0%,100%);stroke-opacity:1;stroke-miterlimit:10;" d="M 257.625 178.96875 L 250.496094 188.804688 "/>
<path style=" stroke:none;fill-rule:nonzero;fill:rgb(100%,100%,100%);fill-opacity:1;" d="M 260.75 163.632812 L 268.75 163.632812 L 268.75 174.632812 L 260.75 174.632812 Z M 260.75 163.632812 "/>
<g style="fill:rgb(100%,0%,0%);fill-opacity:1;">
  <use xlink:href="#glyph0-3" x="260.75" y="172.295898"/>
</g>
<path style="fill:none;stroke-width:1.2;stroke-linecap:butt;stroke-linejoin:miter;stroke:rgb(0%,0%,100%);stroke-opacity:1;stroke-miterlimit:10;" d="M 250.496094 188.804688 L 238.9375 185.066406 "/>
<path style="fill:none;stroke-width:1.2;stroke-linecap:butt;stroke-linejoin:miter;stroke:rgb(0%,0%,0%);stroke-opacity:1;stroke-miterlimit:10;" d="M 238.9375 185.066406 L 227.382812 181.328125 "/>
<path style="fill:none;stroke-width:1.2;stroke-linecap:butt;stroke-linejoin:miter;stroke:rgb(0%,0%,100%);stroke-opacity:1;stroke-miterlimit:10;" d="M 249.945312 182.621094 L 240.699219 179.628906 "/>
<path style="fill:none;stroke-width:1.2;stroke-linecap:butt;stroke-linejoin:miter;stroke:rgb(0%,0%,0%);stroke-opacity:1;stroke-miterlimit:10;" d="M 240.699219 179.628906 L 231.453125 176.636719 "/>
<path style=" stroke:none;fill-rule:nonzero;fill:rgb(100%,100%,100%);fill-opacity:1;" d="M 247.496094 183.304688 L 254.496094 183.304688 L 254.496094 194.304688 L 247.496094 194.304688 Z M 247.496094 183.304688 "/>
<g style="fill:rgb(0%,0%,100%);fill-opacity:1;">
  <use xlink:href="#glyph0-1" x="247.496094" y="191.967773"/>
</g>
<path style="fill:none;stroke-width:1.2;stroke-linecap:butt;stroke-linejoin:miter;stroke:rgb(0%,0%,0%);stroke-opacity:1;stroke-miterlimit:10;" d="M 227.382812 181.328125 L 207.746094 195.636719 "/>
</g>
</svg>

<svg xmlns="http://www.w3.org/2000/svg" xmlns:xlink="http://www.w3.org/1999/xlink" width="300pt" height="300pt" viewBox="0 0 300 300"><defs><symbol overflow="visible"><path d="M.453 1.594v-7.938h4.5v7.938zm.5-.5h3.5v-6.938h-3.5zm0 0"/></symbol><symbol overflow="visible" id="a"><path d="M.89-6.563H2.08l2.906 5.485v-5.484h.86V0H4.656L1.75-5.484V0H.89zm0 0"/></symbol><symbol overflow="visible" id="b"><path d="M.89-6.563h.876v2.688H5v-2.688h.89V0H5v-3.125H1.766V0H.89zm0 0"/></symbol><symbol overflow="visible" id="c"><path d="M3.547-5.953c-.65 0-1.164.242-1.547.72-.375.48-.563 1.13-.563 1.952 0 .835.188 1.49.563 1.967.383.48.898.72 1.547.72.644 0 1.156-.24 1.53-.72.376-.476.564-1.132.564-1.968 0-.822-.187-1.474-.562-1.954-.375-.477-.887-.72-1.53-.72zm0-.734c.914 0 1.648.312 2.203.937.55.617.828 1.438.828 2.47 0 1.042-.277 1.87-.828 2.483-.555.617-1.29.922-2.203.922-.93 0-1.668-.305-2.22-.922C.774-1.41.5-2.237.5-3.28c0-1.033.273-1.853.828-2.47.55-.625 1.29-.938 2.22-.938zm0 0"/></symbol></defs><g><path fill="#fff" d="M0 0h300v300H0z"/><path d="M35.25 173.738l22.18-9.91M57.43 163.828l2.508-24.164M63.367 162l2.004-19.328" stroke-width="1.2" stroke="#000" stroke-miterlimit="10" fill="none"/><path d="M77.102 178.082l-9.836-7.13" stroke-width="1.2" stroke="#00f" stroke-miterlimit="10" fill="none"/><path d="M67.266 170.953l-9.836-7.125M59.938 139.664l11.09-4.957" stroke-width="1.2" stroke="#000" stroke-miterlimit="10" fill="none"/><path d="M71.027 134.707l11.09-4.953M82.117 129.754l9.836 7.125" stroke-width="1.2" stroke="#00f" stroke-miterlimit="10" fill="none"/><path d="M91.953 136.88l9.836 7.128" stroke-width="1.2" stroke="#000" stroke-miterlimit="10" fill="none"/><path d="M80.73 135.81l7.872 5.698" stroke-width="1.2" stroke="#00f" stroke-miterlimit="10" fill="none"/><path d="M88.602 141.508l7.867 5.703" stroke-width="1.2" stroke="#000" stroke-miterlimit="10" fill="none"/><path d="M79.117 124.254h7v11h-7zm0 0" fill="#fff"/><use xlink:href="#a" x="79.117" y="132.917" fill="#00f"/><path d="M101.79 144.008l-2.505 24.164M101.79 144.008l22.183-9.91M99.285 168.172l-11.094 4.953" stroke-width="1.2" stroke="#000" stroke-miterlimit="10" fill="none"/><path d="M88.19 173.125l-11.088 4.957" stroke-width="1.2" stroke="#00f" stroke-miterlimit="10" fill="none"/><path d="M94.734 163.94l-8.875 3.966" stroke-width="1.2" stroke="#000" stroke-miterlimit="10" fill="none"/><path d="M85.86 167.906l-8.872 3.965" stroke-width="1.2" stroke="#00f" stroke-miterlimit="10" fill="none"/><path d="M74.102 172.582h7v11h-7zm0 0" fill="#fff"/><use xlink:href="#a" x="74.102" y="181.245" fill="#00f"/><path d="M123.973 134.098l9.836 7.125" stroke-width="1.2" stroke="#000" stroke-miterlimit="10" fill="none"/><path d="M133.81 141.223l9.835 7.13M143.645 148.352l11.09-4.957" stroke-width="1.2" stroke="#00f" stroke-miterlimit="10" fill="none"/><path d="M154.734 143.395l11.09-4.958" stroke-width="1.2" stroke="#000" stroke-miterlimit="10" fill="none"/><path d="M136.645 142.852h14v11h-14zm0 0" fill="#fff"/><g fill="#00f"><use xlink:href="#a" x="136.645" y="151.515"/><use xlink:href="#b" x="143.622" y="151.515"/></g><path d="M165.824 138.438l9.836 7.128" stroke-width="1.2" stroke="#000" stroke-miterlimit="10" fill="none"/><path d="M175.66 145.566l9.836 7.125" stroke-width="1.2" stroke="#00f" stroke-miterlimit="10" fill="none"/><path d="M171.145 135.234l7.87 5.703" stroke-width="1.2" stroke="#000" stroke-miterlimit="10" fill="none"/><path d="M179.016 140.938l7.867 5.7" stroke-width="1.2" stroke="#00f" stroke-miterlimit="10" fill="none"/><path d="M168.332 114.277l-2.508 24.16" stroke-width="1.2" stroke="#000" stroke-miterlimit="10" fill="none"/><path d="M185.496 152.69l11.09-4.952" stroke-width="1.2" stroke="#00f" stroke-miterlimit="10" fill="none"/><path d="M196.586 147.738l11.09-4.957" stroke-width="1.2" stroke="#000" stroke-miterlimit="10" fill="none"/><path d="M182.496 147.19h7v11h-7zm0 0" fill="#fff"/><use xlink:href="#a" x="182.496" y="155.854" fill="#00f"/><path d="M207.676 142.78l1.254-12.08" stroke-width="1.2" stroke="#000" stroke-miterlimit="10" fill="none"/><path d="M208.93 130.7l1.254-12.083" stroke-width="1.2" stroke="#00f" stroke-miterlimit="10" fill="none"/><path d="M202.242 139.777l1.004-9.668" stroke-width="1.2" stroke="#000" stroke-miterlimit="10" fill="none"/><path d="M203.246 130.11l1.004-9.665" stroke-width="1.2" stroke="#00f" stroke-miterlimit="10" fill="none"/><path d="M207.676 142.78l19.676 14.255" stroke-width="1.2" stroke="#000" stroke-miterlimit="10" fill="none"/><path d="M210.184 118.617l-9.836-7.125" stroke-width="1.2" stroke="#00f" stroke-miterlimit="10" fill="none"/><path d="M200.348 111.492l-9.836-7.13" stroke-width="1.2" stroke="#000" stroke-miterlimit="10" fill="none"/><path d="M207.184 113.117h7v11h-7zm0 0" fill="#fff"/><use xlink:href="#a" x="207.184" y="121.78" fill="#00f"/><path d="M190.512 104.363l-22.18 9.914M190.625 110.574l-17.742 7.93M227.352 157.035l23.093-7.535M231.434 161.715l18.476-6.028M227.383 181.328l-.03-24.293M250.445 149.5l7.153 9.816" stroke-width="1.2" stroke="#000" stroke-miterlimit="10" fill="none"/><path d="M257.598 159.316l7.152 9.817" stroke-width="1.2" stroke="#f00" stroke-miterlimit="10" fill="none"/><path d="M250.445 149.5l7.477-23.117" stroke-width="1.2" stroke="#000" stroke-miterlimit="10" fill="none"/><path d="M264.75 169.133l-7.125 9.836" stroke-width="1.2" stroke="#f00" stroke-miterlimit="10" fill="none"/><path d="M257.625 178.97l-7.13 9.835" stroke-width="1.2" stroke="#00f" stroke-miterlimit="10" fill="none"/><path d="M260.75 163.633h8v11h-8zm0 0" fill="#fff"/><use xlink:href="#c" x="260.75" y="172.296" fill="#f00"/><path d="M250.496 188.805l-11.56-3.74" stroke-width="1.2" stroke="#00f" stroke-miterlimit="10" fill="none"/><path d="M238.938 185.066l-11.555-3.738" stroke-width="1.2" stroke="#000" stroke-miterlimit="10" fill="none"/><path d="M249.945 182.62l-9.246-2.99" stroke-width="1.2" stroke="#00f" stroke-miterlimit="10" fill="none"/><path d="M240.7 179.63l-9.247-2.993" stroke-width="1.2" stroke="#000" stroke-miterlimit="10" fill="none"/><path d="M247.496 183.305h7v11h-7zm0 0" fill="#fff"/><use xlink:href="#a" x="247.496" y="191.968" fill="#00f"/><path d="M227.383 181.328l-19.637 14.31" stroke-width="1.2" stroke="#000" stroke-miterlimit="10" fill="none"/></g></svg>
